build/img/img-advantage-1.svg

<?xml version="1.0" encoding="UTF-8"?>
<svg width="91px" height="83px" viewBox="0 0 91 83" version="1.1" xmlns="http://www.w3.org/2000/svg" xmlns:xlink="http://www.w3.org/1999/xlink">
    <!-- Generator: Sketch 47.1 (45422) - http://www.bohemiancoding.com/sketch -->
    <title>Group</title>
    <desc>Created with Sketch.</desc>
    <defs></defs>
    <g id="Page-1" stroke="none" stroke-width="1" fill="none" fill-rule="evenodd">
        <g id="Desktop-HD-Copy-3" transform="translate(-302.000000, -2308.000000)" fill-rule="nonzero">
            <g id="noun_1265786_cc" transform="translate(302.000000, 2308.000000)">
                <g id="Group">
                    <path d="M89.2785833,0.245227273 L1.72141667,0.245227273 C0.883458333,0.245227273 0.20475,0.924318182 0.20475,1.75431818 L0.20475,52.8936364 C0.20475,53.7274091 0.883458333,54.4027273 1.72141667,54.4027273 L21.6200833,54.4027273 C22.4580417,54.4027273 23.13675,53.7236364 23.13675,52.8936364 C23.13675,52.0636364 22.4580417,51.3845455 21.6200833,51.3845455 L3.23808333,51.3845455 L3.23808333,3.26718182 L87.7619167,3.26718182 L87.7619167,51.3807727 L69.3799167,51.3807727 C68.5419583,51.3807727 67.86325,52.0598636 67.86325,52.8898636 C67.86325,53.7198636 68.5419583,54.3989545 69.3799167,54.3989545 L89.2785833,54.3989545 C90.1165417,54.3989545 90.79525,53.7198636 90.79525,52.8898636 L90.79525,1.75809091 C90.79525,0.924318182 90.1165417,0.245227273 89.2785833,0.245227273 Z" id="Shape" fill="#33495F"></path>
                    <path d="M13.1419167,14.6306364 L26.4658333,14.6306364 C27.3037917,14.6306364 27.9825,13.9515455 27.9825,13.1215455 C27.9825,12.2915455 27.3037917,11.6124545 26.4658333,11.6124545 L13.1419167,11.6124545 C12.3039583,11.6124545 11.62525,12.2915455 11.62525,13.1215455 C11.62525,13.9515455 12.3039583,14.6306364 13.1419167,14.6306364 Z" id="Shape" fill="#000000"></path>
                    <path d="M13.1419167,22.2062727 L35.9829167,22.2062727 C36.820875,22.2062727 37.4995833,21.5271818 37.4995833,20.6971818 C37.4995833,19.8671818 36.820875,19.1880909 35.9829167,19.1880909 L13.1419167,19.1880909 C12.3039583,19.1880909 11.62525,19.8671818 11.62525,20.6971818 C11.62525,21.5271818 12.3039583,22.2062727 13.1419167,22.2062727 Z" id="Shape" fill="#000000"></path>
                    <path d="M62.7862083,40.6586818 L62.7862083,36.4181364 C62.7862083,33.0604091 60.0182917,30.3327273 56.613375,30.3327273 L52.34775,30.3327273 L49.84525,27.8465 C48.673625,26.6769545 47.1228333,26.0393636 45.4810417,26.0393636 C45.465875,26.0393636 45.4469167,26.0393636 45.4279583,26.0393636 C43.79375,26.0506818 42.2695,26.6995909 41.15475,27.8465 L38.65225,30.3365 L34.386625,30.3365 C30.9855,30.3365 28.2137917,33.0679545 28.2137917,36.4219091 L28.2137917,40.6624545 L25.7075,43.1562273 C24.535875,44.322 23.8912917,45.8575 23.8912917,47.4797727 C23.8912917,49.1058182 24.535875,50.6375455 25.7075,51.8033182 L28.2137917,54.2933182 L28.2137917,58.5338636 C28.2137917,60.7145 29.4195417,62.6423636 31.2774583,63.7251364 L26.2686667,74.0775 C26.0297917,74.5679545 26.0790833,75.1414091 26.3862083,75.5865909 C26.6933333,76.0355455 27.2052083,76.2845455 27.7625833,76.2355 L34.796125,75.6394091 L38.9214583,82.0455 C39.2020417,82.4831364 39.664625,82.8189091 40.2144167,82.7434545 C40.7376667,82.7359091 41.223,82.4642727 41.4922083,82.0190909 L45.5,75.4771818 L49.5002083,82.0153182 C49.7732083,82.4605 50.25475,82.7321364 50.778,82.7396818 C50.7817917,82.7396818 50.789375,82.7396818 50.7931667,82.7396818 C51.3088333,82.7396818 51.790375,82.4793636 52.0709583,82.0417273 L56.1962917,75.6356364 L63.2298333,76.2317273 C63.7872083,76.277 64.2990833,76.0317727 64.6062083,75.5828182 C64.917125,75.1376364 64.962625,74.5604091 64.72375,74.0737273 L59.71875,63.7364545 C61.550125,62.6536818 62.778625,60.6956364 62.778625,58.5300909 L62.778625,54.2895455 L65.2659583,51.8146364 C66.4375833,50.6903636 67.0859583,49.1737273 67.0973333,47.5439091 C67.1087083,45.8914545 66.464125,44.3257727 65.281125,43.1562273 L62.7862083,40.6586818 Z M55.5479167,72.5533182 C54.9715833,72.5193636 54.4445417,72.7721364 54.1412083,73.2437273 L50.8310833,78.3821818 L46.79675,71.7912273 C46.5199583,71.3422727 46.0308333,71.0668636 45.5,71.0668636 C44.9691667,71.0668636 44.4800417,71.3422727 44.20325,71.7912273 L40.1689167,78.3821818 L36.8587917,73.2437273 C36.5516667,72.7721364 36.0435833,72.5193636 35.4520833,72.5533182 L30.155125,73.0022727 L34.671,63.6685455 C35.2018333,63.6195 35.9184583,63.5742273 36.582,63.5742273 C37.37825,63.5742273 37.6436667,63.6496818 37.6474583,63.6496818 C38.0872917,63.8571818 39.4181667,65.2191364 40.60875,66.6942727 C43.2060417,69.2861364 47.672625,69.4181818 50.5087917,66.5697727 C51.585625,65.2266818 52.9165,63.8571818 53.3297917,63.661 C53.337375,63.6572273 53.5914167,63.578 54.4217917,63.578 C55.0815417,63.578 55.7981667,63.6270455 56.329,63.6723182 L60.844875,73.0060455 L55.5479167,72.5533182 Z M63.1464167,49.6641818 L60.2002917,52.5955909 C59.9159167,52.8785455 59.7566667,53.2633636 59.7566667,53.6632727 L59.7566667,58.5300909 C59.7566667,59.5864545 59.17275,60.5598182 58.2855,61.1144091 C58.0655833,60.9295455 57.80775,60.7899545 57.512,60.756 C57.512,60.756 55.8550417,60.5560455 54.4217917,60.5560455 C53.4132083,60.5560455 52.7041667,60.6503636 52.1960833,60.8578636 C50.857625,61.4086818 48.9087083,63.7175909 48.2489583,64.5551364 C46.7891667,66.0076364 44.0932917,65.8793636 42.8685833,64.6834091 C42.0950833,63.7138182 40.1461667,61.4011364 38.8039167,60.8540909 C38.2958333,60.6465909 37.5905833,60.5522727 36.582,60.5522727 C35.1449583,60.5522727 33.488,60.7522273 33.488,60.7522273 C33.1998333,60.7861818 32.9457917,60.922 32.725875,61.0993182 C31.82725,60.5447273 31.247125,59.5977727 31.247125,58.5263182 L31.247125,53.6595 C31.247125,53.2595909 31.087875,52.8747727 30.8035,52.5918182 L27.857375,49.6641818 C27.2582917,49.0680909 26.9284167,48.2909091 26.9284167,47.4722273 C26.9284167,46.6573182 27.2582917,45.8801364 27.8535833,45.2878182 L30.8035,42.3526364 C31.087875,42.0696818 31.247125,41.6848636 31.247125,41.2849545 L31.247125,36.4181364 C31.247125,34.7581364 32.6841667,33.3509091 34.386625,33.3509091 L39.2816667,33.3509091 C39.6835833,33.3509091 40.0703333,33.1886818 40.3547083,32.9095 L43.3197917,29.9592273 C43.8809583,29.382 44.6392917,29.0613182 45.4545,29.0537727 C46.3682917,29.05 47.1000833,29.3782273 47.6991667,29.9780909 L50.6452917,32.9095 C50.9296667,33.1886818 51.3164167,33.3509091 51.7183333,33.3509091 L56.613375,33.3509091 C58.3461667,33.3509091 59.7566667,34.7241818 59.7566667,36.4181364 L59.7566667,41.2849545 C59.7566667,41.6848636 59.9159167,42.0696818 60.2002917,42.3488636 L63.1502083,45.2878182 C63.756875,45.8876818 64.0829583,46.6799545 64.0791667,47.5212727 C64.0677917,48.3361818 63.7455,49.0907273 63.1464167,49.6641818 Z" id="Shape" fill="#E94C36"></path>
                    <path d="M45.5,38.7836364 C40.6125417,38.7836364 36.638875,42.7412273 36.638875,47.6042727 C36.638875,52.4673182 40.6125417,56.4249091 45.5,56.4249091 C50.3874583,56.4249091 54.361125,52.4673182 54.361125,47.6042727 C54.361125,42.7412273 50.3874583,38.7836364 45.5,38.7836364 Z M45.5,53.4029545 C42.2846667,53.4029545 39.6684167,50.8035455 39.6684167,47.6042727 C39.6684167,44.405 42.2846667,41.8055909 45.5,41.8055909 C48.7153333,41.8055909 51.3315833,44.405 51.3315833,47.6042727 C51.3315833,50.8035455 48.7153333,53.4029545 45.5,53.4029545 Z" id="Shape" fill="#E94C36"></path>
                </g>
            </g>
        </g>
    </g>
</svg>

<svg width="91" height="83" viewBox="0 0 91 83" xmlns="http://www.w3.org/2000/svg"><title>Group</title><g id="Page-1" fill="none" fill-rule="evenodd"><g id="Desktop-HD-Copy-3" transform="translate(-302 -2308)" fill-rule="nonzero"><g id="noun_1265786_cc" transform="translate(302 2308)"><g id="Group"><path d="M89.279.245H1.72C.883.245.205.925.205 1.755v51.139c0 .833.678 1.509 1.516 1.509h19.9c.837 0 1.516-.68 1.516-1.51s-.679-1.508-1.517-1.508H3.238V3.267h84.524v48.114H69.38c-.838 0-1.517.679-1.517 1.509 0 .83.679 1.509 1.517 1.509h19.899c.838 0 1.516-.68 1.516-1.51V1.76c0-.835-.678-1.514-1.516-1.514z" id="Shape" fill="#33495F"/><path d="M13.142 14.63h13.324c.838 0 1.517-.678 1.517-1.508s-.68-1.51-1.517-1.51H13.142c-.838 0-1.517.68-1.517 1.51s.679 1.509 1.517 1.509zm0 7.576h22.84c.839 0 1.518-.679 1.518-1.509 0-.83-.68-1.509-1.517-1.509H13.142c-.838 0-1.517.68-1.517 1.51s.679 1.508 1.517 1.508z" id="Shape" fill="#000"/><path d="M62.786 40.659v-4.24c0-3.359-2.768-6.086-6.173-6.086h-4.265l-2.503-2.486a6.137 6.137 0 0 0-4.364-1.808h-.053a5.982 5.982 0 0 0-4.273 1.807l-2.503 2.49h-4.265c-3.402 0-6.173 2.732-6.173 6.086v4.24l-2.506 2.494a6.067 6.067 0 0 0-1.817 4.324c0 1.626.645 3.158 1.817 4.323l2.506 2.49v4.24c0 2.181 1.206 4.11 3.063 5.192L26.27 74.077c-.24.491-.19 1.064.117 1.51a1.49 1.49 0 0 0 1.377.648l7.033-.596 4.125 6.407c.281.437.744.773 1.293.697a1.516 1.516 0 0 0 1.278-.724l4.008-6.542 4 6.538c.273.445.755.717 1.278.725h.015c.516 0 .997-.26 1.278-.698l4.125-6.406 7.034.596c.557.045 1.07-.2 1.376-.65a1.486 1.486 0 0 0 .118-1.508L59.72 63.736c1.831-1.082 3.06-3.04 3.06-5.206v-4.24l2.487-2.475a5.925 5.925 0 0 0 1.831-4.271 6.076 6.076 0 0 0-1.816-4.388l-2.495-2.497zm-7.238 31.894c-.576-.034-1.103.22-1.407.69l-3.31 5.14-4.034-6.592a1.522 1.522 0 0 0-2.594 0l-4.034 6.591-3.31-5.138c-.307-.472-.815-.725-1.407-.69l-5.297.448 4.516-9.333a21.93 21.93 0 0 1 1.911-.095c.796 0 1.062.076 1.065.076.44.207 1.771 1.57 2.962 3.044 2.597 2.592 7.064 2.724 9.9-.124 1.077-1.343 2.407-2.713 2.82-2.909.008-.004.262-.083 1.093-.083.66 0 1.376.049 1.907.094l4.516 9.334-5.297-.453zm7.598-22.889L60.2 52.596a1.507 1.507 0 0 0-.443 1.067v4.867c0 1.056-.584 2.03-1.471 2.584a1.467 1.467 0 0 0-.774-.358s-1.657-.2-3.09-.2c-1.009 0-1.718.094-2.226.302-1.338.55-3.287 2.86-3.947 3.697-1.46 1.453-4.156 1.324-5.38.128-.774-.97-2.723-3.282-4.065-3.829-.508-.207-1.213-.302-2.222-.302-1.437 0-3.094.2-3.094.2-.288.034-.542.17-.762.347-.899-.554-1.479-1.501-1.479-2.573V53.66c0-.4-.16-.784-.444-1.067l-2.946-2.928a3.079 3.079 0 0 1-.929-2.192c0-.815.33-1.592.926-2.184l2.95-2.935c.284-.283.443-.668.443-1.068v-4.867c0-1.66 1.437-3.067 3.14-3.067h4.895a1.54 1.54 0 0 0 1.073-.441l2.965-2.95a2.99 2.99 0 0 1 2.135-.906 3.023 3.023 0 0 1 2.244.924l2.946 2.931c.285.28.671.442 1.073.442h4.895c1.733 0 3.144 1.373 3.144 3.067v4.867c0 .4.159.785.443 1.064l2.95 2.939c.607.6.933 1.392.93 2.233a2.985 2.985 0 0 1-.934 2.143z" id="Shape" fill="#E94C36"/><path d="M45.5 38.784c-4.887 0-8.861 3.957-8.861 8.82s3.974 8.82 8.861 8.82c4.887 0 8.861-3.957 8.861-8.82s-3.974-8.82-8.861-8.82zm0 14.619c-3.215 0-5.832-2.6-5.832-5.799 0-3.199 2.617-5.798 5.832-5.798s5.832 2.599 5.832 5.798c0 3.2-2.617 5.799-5.832 5.799z" id="Shape" fill="#E94C36"/></g></g></g></g></svg>
